lib/assets/icons/svg/outlined-media-app.svg

<svg viewBox="0 0 24 24" xmlns="http://www.w3.org/2000/svg">
  <path  d="M 11.95 16.93 C 12.435 16.941 12.817 17.346 12.8 17.83 C 12.8 17.988 12.758 18.143 12.679 18.28 C 12.333 18.88 11.467 18.88 11.121 18.28 C 10.774 17.68 11.207 16.93 11.9 16.93 Z M 17.79 5.95 L 17.79 18.04 C 17.785 19.304 16.764 20.329 15.5 20.34 L 8.5 20.34 C 7.236 20.329 6.215 19.304 6.21 18.04 L 6.21 5.95 C 6.215 4.714 7.195 3.703 8.43 3.66 L 15.38 3.66 C 16.666 3.658 17.726 4.666 17.79 5.95 Z M 16.59 5.77 C 16.537 5.17 16.011 4.724 15.41 4.77 L 8.41 4.77 C 7.751 4.759 7.21 5.29 7.21 5.95 L 7.21 18.06 C 7.215 18.722 7.768 19.248 8.43 19.22 L 15.4 19.22 C 16.049 19.22 16.571 18.688 16.56 18.04 L 16.56 5.95 C 16.583 5.893 16.593 5.831 16.59 5.77 Z M 11.14 9.43 L 11.14 8.43 C 11.15 8.28 11.27 8.16 11.42 8.15 L 12.42 8.15 C 12.57 8.16 12.69 8.28 12.7 8.43 L 12.7 9.43 C 12.69 9.58 12.57 9.7 12.42 9.71 L 11.42 9.71 C 11.271 9.696 11.154 9.579 11.14 9.43 Z M 15.59 8.46 L 15.59 9.46 C 15.58 9.61 15.46 9.73 15.31 9.74 L 14.31 9.74 C 14.16 9.73 14.04 9.61 14.03 9.46 L 14.03 8.46 C 14.04 8.31 14.16 8.19 14.31 8.18 L 15.31 8.18 C 15.46 8.19 15.58 8.31 15.59 8.46 Z M 9.82 8.46 L 9.82 9.46 C 9.81 9.61 9.69 9.73 9.54 9.74 L 8.54 9.74 C 8.39 9.73 8.27 9.61 8.26 9.46 L 8.26 8.46 C 8.27 8.31 8.39 8.19 8.54 8.18 L 9.54 8.18 C 9.672 8.224 9.776 8.328 9.82 8.46 Z M 11.14 12 L 11.14 11 C 11.15 10.85 11.27 10.73 11.42 10.72 L 12.42 10.72 C 12.57 10.73 12.69 10.85 12.7 11 L 12.7 12 C 12.69 12.15 12.57 12.27 12.42 12.28 L 11.42 12.28 C 11.27 12.27 11.15 12.15 11.14 12 Z M 15.59 11.03 L 15.59 12.03 C 15.58 12.18 15.46 12.3 15.31 12.31 L 14.31 12.31 C 14.16 12.3 14.04 12.18 14.03 12.03 L 14.03 11.03 C 14.04 10.88 14.16 10.76 14.31 10.75 L 15.31 10.75 C 15.459 10.764 15.576 10.881 15.59 11.03 Z M 9.82 11.03 L 9.82 12.03 C 9.81 12.18 9.69 12.3 9.54 12.31 L 8.54 12.31 C 8.39 12.3 8.27 12.18 8.26 12.03 L 8.26 11.03 C 8.27 10.88 8.39 10.76 8.54 10.75 L 9.54 10.75 C 9.662 10.81 9.76 10.908 9.82 11.03 Z M 11.37 14.85 C 11.23 14.834 11.128 14.71 11.14 14.57 L 11.14 13.57 C 11.15 13.42 11.27 13.3 11.42 13.29 L 12.42 13.29 C 12.57 13.3 12.69 13.42 12.7 13.57 L 12.7 14.57 C 12.69 14.72 12.57 14.84 12.42 14.85 Z M 9.89 13.66 L 9.89 14.66 C 9.851 14.815 9.697 14.912 9.54 14.88 L 8.54 14.88 C 8.39 14.87 8.27 14.75 8.26 14.6 L 8.26 13.6 C 8.27 13.45 8.39 13.33 8.54 13.32 L 9.54 13.32 C 9.712 13.357 9.848 13.489 9.89 13.66 Z"/>
</svg>

<svg xmlns="http://www.w3.org/2000/svg" viewBox="0 0 24 24"><path d="M11.95 16.93a.87.87 0 0 1 .85.9.9.9 0 1 1-.9-.9zm5.84-10.98v12.09a2.31 2.31 0 0 1-2.29 2.3h-7a2.31 2.31 0 0 1-2.29-2.3V5.95a2.3 2.3 0 0 1 2.22-2.29h6.95a2.41 2.41 0 0 1 2.41 2.29zm-1.2-.18a1.1 1.1 0 0 0-1.18-1h-7a1.18 1.18 0 0 0-1.2 1.18v12.11a1.17 1.17 0 0 0 1.22 1.16h6.97a1.16 1.16 0 0 0 1.16-1.18V5.95a.427.427 0 0 0 .03-.18zm-5.45 3.66v-1c.01-.15.13-.27.28-.28h1c.15.01.27.13.28.28v1c-.01.15-.13.27-.28.28h-1a.31.31 0 0 1-.28-.28zm4.45-.97v1c-.01.15-.13.27-.28.28h-1a.301.301 0 0 1-.28-.28v-1c.01-.15.13-.27.28-.28h1c.15.01.27.13.28.28zm-5.77 0v1c-.01.15-.13.27-.28.28h-1a.301.301 0 0 1-.28-.28v-1c.01-.15.13-.27.28-.28h1a.443.443 0 0 1 .28.28zM11.14 12v-1c.01-.15.13-.27.28-.28h1c.15.01.27.13.28.28v1c-.01.15-.13.27-.28.28h-1a.301.301 0 0 1-.28-.28zm4.45-.97v1c-.01.15-.13.27-.28.28h-1a.301.301 0 0 1-.28-.28v-1c.01-.15.13-.27.28-.28h1a.31.31 0 0 1 .28.28zm-5.77 0v1c-.01.15-.13.27-.28.28h-1a.301.301 0 0 1-.28-.28v-1c.01-.15.13-.27.28-.28h1c.122.06.22.158.28.28zm1.55 3.82a.26.26 0 0 1-.23-.28v-1c.01-.15.13-.27.28-.28h1c.15.01.27.13.28.28v1c-.01.15-.13.27-.28.28zm-1.48-1.19v1a.3.3 0 0 1-.35.22h-1a.301.301 0 0 1-.28-.28v-1c.01-.15.13-.27.28-.28h1a.46.46 0 0 1 .35.34z"/></svg>
